X:1
T:In Sweet Communion, Lord, with You
T:Text: Psalm 73:23-28; vers. Psalter, 1912, alt Tune: William U. Butcher, 1860
T:CM PRAYER www.hymnary.org/text/in_sweet_communion_lord_with_thee
T:In Sweet Communion, Lord, with You
T:This hymn is in the public domain.  You may freely use this score for personal and congregational worship.  If you reproduce the score, please credit Hymnary.org as the source. 
T:This hymn is in the public domain.  You may freely use this score for personal and congregational worship.  If you reproduce the score, please credit Hymnary.org as the source. 
Z:This hymn is in the public domain.  You may freely use this score for personal and congregational worship.  If you reproduce the score, please credit Hymnary.org as the source.
%%score ( 1 2 ) ( 3 4 )
L:1/8
M:3/4
K:Bb
V:1 treble nm="SOPRANO ALTO" snm="S. A."
V:2 treble 
V:3 bass nm="TENOR BASS" snm="T. B."
V:4 bass 
V:1
"^Capo 1:""^Bb(A)""^1""^2""^3""^4""^5" F2 | (F2 D2) F2 |"^Eb(D)" G4 G2 | (B2 A2) G2 | %4
w: In|sweet * com-|mu- nion,|Lord, * with|
w: Your|coun- * sel|through my|earth- * ly|
w: Whom|have * I,|Lord, in|heaven * but|
w: Though|flesh * and|heart should|faint * and|
w: To|live * a-|part from|God * is|
"^Bb(A)" F4 F2 | F4 F2 | (B2 F2) D2 |"^F(E)" C4 C2 |"^Bb(A)" D4 F2 | B4 F2 |1"^Eb(D)" (G2 B2) G2 | %11
w: you I|con- stant-|ly * a-|bide; my|hand you|hold with-|in * your|
w: way shall|guide me|and * con-|trol, and|then to|glo- ry|af- * ter-|
w: you, to|whom my|thoughts _ as-|pire? And,|hav- ing|you, what|more * on|
w: fail, the|Lord will|ev- * er|be the|strength and|por- tion|of * my|
w: death; 'tis|good his|face * to|seek. My|ref- uge|is the|liv- * ing|
"^Bb(A)" F4 B2 |"^F(E)" c4 c2 | (c2 d2)"^F7(E7)" c2 |"^Bb(A)" B4 x2 |] %15
w: own to|keep me|near * your|side.|
w: ward you|will re-|ceive * my|soul.|
w: earth is|there I|can * de-|sire?|
w: heart, my|God e-|ter- * nal-|ly.|
w: God; his|praise I|long * to|speak.|
V:2
 D2 | (D2 B,2) D2 | E4 E2 | (G2 F2) E2 | D4 D2 | D4 D2 | D4 B,2 | A,4 A,2 | B,4 D2 | D4 D2 |1 %10
 (E2 G2) E2 | D4 F2 | F4 F2 | F4 E2 | D4 x2 |] %15
V:3
 F,2 | F,4 B,2 | B,4 B,2 | B,4 B,2 | B,4 B,2 | B,4 B,2 | F,4 F,2 | F,4 F,2 | F,4 F,2 | F,4 B,2 |1 %10
 B,4 B,2 | B,4 B,2 | A,4 A,2 | (A,2 B,2) A,2 | B,4 x2 |] %15
V:4
 B,,2 | B,,4 B,,2 | E,4 E,2 | E,4 E,2 | B,,4 B,,2 | B,,4 B,,2 | B,,4 D,2 | F,4 F,,2 | B,,4 B,,2 | %9
 B,,4 B,,2 |1 E,4 E,2 | B,,4 D,2 | F,4 F,2 | F,,4 F,,2 | B,,4 x2 |] %15

